docs/assets/features-menu.svg

<svg width="467" height="343" viewBox="0 0 467 343" fill="none" xmlns="http://www.w3.org/2000/svg">
<path d="M3 330V36.0356C3 30.5127 7.47715 26.0356 13 26.0356H262.437C265.34 26.0356 268.1 24.7741 269.999 22.5788L286.293 3.74795C287.091 2.82615 288.52 2.82614 289.318 3.74795L305.611 22.5788C307.511 24.7741 310.271 26.0356 313.174 26.0356H454C459.523 26.0356 464 30.5127 464 36.0355V330C464 335.523 459.523 340 454 340H13C7.47715 340 3 335.523 3 330Z" fill="#3A2657" stroke="#DE9CEA" stroke-width="5"/>
</svg>

<svg xmlns="http://www.w3.org/2000/svg" width="467" height="343" fill="none" xmlns:v="https://vecta.io/nano"><path d="M3 330V36.036c0-5.523 4.477-10 10-10h249.437a10 10 0 0 0 7.562-3.457l16.294-18.831a2 2 0 0 1 3.025 0l16.293 18.831c1.9 2.195 4.66 3.457 7.563 3.457H454a10 10 0 0 1 10 10V330a10 10 0 0 1-10 10H13a10 10 0 0 1-10-10z" fill="#3a2657" stroke="#de9cea" stroke-width="5"/></svg>
